X:1
T:Cagliari, 11.10.11.10 D
T:Cagliari, 11.10.11.10 D
T:Edmund Simon Lorenz, 1883
T:Public Domain Courtesy of the Cyber Hymnal™
C:Edmund Simon Lorenz, 1883
Z:Public Domain
Z:Courtesy of the Cyber Hymnal™
%%score 1 ( 2 3 )
L:1/8
Q:1/4=100
M:4/4
K:Ab
V:1 treble 
V:2 bass 
V:3 bass 
V:1
 [Ec]2 [CE][CA] [Ec]2 [Fd]2 | [Ec][DB][DB][Ec] [CA]2 [CE]2 | [DF]2 [DF][EG] [FA]2 [Fd]2 | %3
 [Ec][Ed][Ee][Ec] [EB]4 | [Ec]2 [CE][CA] [Ec]2 [Fd]2 | [Ec][DB][Dc][Ec] [CA]2 [CE]2 | %6
 [DF]2 [DF][EG] [FA]2 [Fd]2 | [Ec][DB][CA][DG] [CA]4 | [Ae]2 [Ac][Bd] [ce]2 A2 | %9
 [Fd][Ec][DB][CA] [DF]2 [DA]2 | [CE]2 [CA][DB] [Ec]2 [Ee]2 | [Ec][Ec][EB][=DA] [EB]4 | %12
 [Ec]2 [CE][CA] [Ec]2 [Fd]2 | [Ec][DB][DB][Ec] [CA]2 [CE]2 | [DF]2 [DF][EG] [FA]2 [Fd]2 | %15
 [Ec][DB][CA][DG] [CA]4 |] %16
V:2
 A,2 A,A, A,2 A,2 | [E,G,][E,G,][E,G,][E,G,] [A,,A,]2 [A,,A,]2 | %2
 [D,A,]2 [D,A,][D,A,] [D,A,]2 [D,A,]2 | A,[A,B,][A,C]A, [E,G,]4 | A,2 A,A, A,2 A,2 | %5
 [E,G,][E,G,][E,G,][E,G,] [A,,A,]2 [A,,A,]2 | [D,A,]2 [D,A,][D,A,] [D,A,]2 [D,A,]2 | %7
 [E,A,][E,G,][E,A,][E,B,] [A,,A,]4 | [A,C]2 [A,E][A,E] [A,E]2 [A,C]2 | A,A,A,A, [D,A,]2 [F,A,]2 | %10
 A,2 A,A, A,2 [A,C]2 | A,A,[G,B,][F,B,] [E,G,]4 | A,2 A,A, A,2 A,2 | %13
 [E,G,][E,G,][E,G,][E,G,] [A,,A,]2 [A,,A,]2 | [D,A,]2 [D,A,][D,A,] [D,A,]2 [D,A,]2 | %15
 [E,A,][E,G,][E,A,][E,B,] [A,,A,]4 |] %16
V:3
 A,2 A,A, A,2 A,2 | x8 | x8 | A, x A, x5 | A,2 A,A, A,2 A,2 | x8 | x8 | x8 | x8 | x8 | x8 | x8 | %12
 A,2 A,A, A,2 A,2 | x8 | x8 | x8 |] %16

